X: 187
T: the Skylark   #2
R: air
%S: s:2 b:10(6+4)
B: O'Neill's 1850 #187
O: F.O'Neill
Z: 1997 henrik.norbeck@mailbox.swipnet.se
N: Compacted via repeats and multiple endings [JC]
N: Compacted by using labels and play order [JC]
P: Play A1A2 BA2
Q: "Tenderly"
M: 3/4
L: 1/8
K: G
(BA) "^A"|: G>F FG EC | D4 (3DEF |1 G3 .A(Bc) | A2 d2 dB :|2 GB E2 AF | HG4 |]
"^B"[| DD  | (G3 F) (G/A/B/c/) | d4 e>d | dB GA (3Bdc | B2 A2 "^->A2"dB |]
